X: 20692
T: EARL DOUGLAS'S LAMENT
N: A version of "The Blackbird", "Bonnie Portmore", "Carronside", "My Ain Fireside", and many other titles.
Q: "Plaintive and slow."
%R: air, waltz
B: W. Hamilton "Universal Tune-Book" Vol. 2 Glasgow 1846 p.69 #2
S: http://s3-eu-west-1.amazonaws.com/itma.dl.printmaterial/book_pdfs/hamiltonvol2web.pdf
Z: 2016 John Chambers <jc:trillian.mit.edu>
M: 3/4
L: 1/8
K: G
% - - - - - - - - - - - - - - - - - - - - - - - - -
(GA) |\
B3 A G2 | E2 E2 (GE) | D2 E2 G3/A//B// | A4 (GA) |\
B3 A G2 | E2 E2 (GE) | (Dc) B2 A2 | G4 :|\
GA |\
B3 A (Bc) | d2 d2 (ef) | g4 fg | e4 (dc) |
B2 A2 B2 | d3 e (d/e/f) | g3 f e2 | d4 (Bd) |\
c4 dB | A2 B2 d2 | e2 (ge)(dB) | A4 (GA) |\
B3 A G2 | E2 E2 (GE) | (Dc) B2 A2 | G4 |]
% - - - - - - - - - - - - - - - - - - - - - - - - -

%%sep 1 1 500
%%sep 1 1 500

